src/assets/images/002-remove.svg

<svg width="20" height="20" viewBox="0 0 20 20" fill="none" xmlns="http://www.w3.org/2000/svg">
<g clip-path="url(#clip0_1_22389)">
<path d="M10 20C4.48578 20 0 15.5142 0 10C0 4.48578 4.48578 0 10 0C15.5142 0 20 4.48578 20 10C20 15.5142 15.5142 20 10 20ZM10 1.25C5.17502 1.25 1.25 5.17502 1.25 10C1.25 14.825 5.17502 18.75 10 18.75C14.825 18.75 18.75 14.825 18.75 10C18.75 5.17502 14.825 1.25 10 1.25Z" fill="#FF0004"/>
<path d="M6.9061 13.7183C6.74603 13.7183 6.58597 13.6576 6.46436 13.5351C6.22021 13.2909 6.22021 12.8951 6.46436 12.651L12.6518 6.46338C12.8961 6.21924 13.2919 6.21924 13.536 6.46338C13.7802 6.70752 13.7802 7.10333 13.536 7.34763L7.34845 13.5351C7.22516 13.6576 7.06525 13.7183 6.9061 13.7183Z" fill="#FF0004"/>
<path d="M13.0935 13.7183C12.9336 13.7183 12.7735 13.6575 12.6519 13.535L6.46447 7.34832C6.22018 7.10418 6.22018 6.70837 6.46447 6.46423C6.70861 6.21993 7.10442 6.21993 7.34856 6.46423L13.536 12.6517C13.7803 12.8958 13.7803 13.2916 13.536 13.5358C13.4136 13.6575 13.2536 13.7183 13.0935 13.7183Z" fill="#FF0004"/>
</g>
<defs>
<clipPath id="clip0_1_22389">
<rect width="20" height="20" fill="white"/>
</clipPath>
</defs>
</svg>

<svg xmlns="http://www.w3.org/2000/svg" width="20" height="20" fill="none" viewBox="0 0 20 20"><g fill="#ff0004" clip-path="url(#a)"><path d="M10 20C4.486 20 0 15.514 0 10S4.486 0 10 0s10 4.486 10 10-4.486 10-10 10m0-18.75c-4.825 0-8.75 3.925-8.75 8.75s3.925 8.75 8.75 8.75 8.75-3.925 8.75-8.75S14.825 1.25 10 1.25"/><path d="M6.906 13.718a.625.625 0 0 1-.442-1.067l6.188-6.188a.625.625 0 0 1 .884.885l-6.188 6.187a.63.63 0 0 1-.442.183"/><path d="M13.094 13.718a.62.62 0 0 1-.442-.183L6.464 7.348a.625.625 0 1 1 .885-.884l6.187 6.188a.625.625 0 0 1-.442 1.066"/></g><defs><clipPath id="a"><path fill="#fff" d="M0 0h20v20H0z"/></clipPath></defs></svg>
